dhis-2/dhis-support/dhis-support-system/src/main/resources/SVGs/cardiogram_e_negative.svg

<svg width="48" height="48" viewBox="0 0 48 48" fill="none" xmlns="http://www.w3.org/2000/svg">
<path fill-rule="evenodd" clip-rule="evenodd" d="M0 0V48H48V0H0ZM24.03 4.97C25.43 4.97 26.58 6.07 26.65 7.47H28.69C29.27 7.47 29.75 7.95 29.75 8.54V8.78H36.14C37.17 8.78 38 9.6 38 10.63V41.17C38 42.2 37.17 43.03 36.14 43.03H11.86C11.3667 43.03 10.8936 42.834 10.5448 42.4852C10.196 42.1364 10 41.6633 10 41.17V10.63C10 9.6 10.83 8.78 11.86 8.78H18.25V8.54C18.25 7.94 18.72 7.47 19.31 7.47H21.41C21.4433 6.79698 21.7337 6.16242 22.2212 5.69724C22.7087 5.23205 23.3562 4.97174 24.03 4.97ZM38 15.94C38.01 15.43 37.73 14.94 37.24 14.71L35.28 13.79C35.1251 13.7175 34.9574 13.6763 34.7865 13.6688C34.6156 13.6612 34.445 13.6874 34.2843 13.746C34.1235 13.8045 33.976 13.8942 33.85 14.0098C33.724 14.1255 33.622 14.2649 33.55 14.42L25.87 30.94C25.7976 31.0958 25.7568 31.2644 25.7499 31.436C25.743 31.6076 25.7703 31.7789 25.83 31.94L25.81 31.99L25.24 36.89L25.25 36.97C25.25 37.03 25.26 37.08 25.28 37.14L25.3 37.17C25.3223 37.2066 25.3492 37.2402 25.38 37.27C25.38 37.28 25.38 37.29 25.4 37.3L25.44 37.33L25.51 37.37C25.5488 37.3966 25.5933 37.4138 25.64 37.42H25.67C25.73 37.43 25.78 37.42 25.84 37.41H25.85L26 37.32H26.01L26.06 37.28L29.42 33.65L29.44 33.63C29.76 33.53 30.04 33.29 30.19 32.95L37.87 16.44C37.95 16.28 37.99 16.1 38 15.94ZM23.99 6.42C23.6784 6.42 23.3795 6.54379 23.1591 6.76415C22.9388 6.9845 22.815 7.28337 22.815 7.595C22.815 7.90663 22.9388 8.2055 23.1591 8.42585C23.3795 8.64621 23.6784 8.77 23.99 8.77C24.3016 8.77 24.6005 8.64621 24.8209 8.42585C25.0412 8.2055 25.165 7.90663 25.165 7.595C25.165 7.28337 25.0412 6.9845 24.8209 6.76415C24.6005 6.54379 24.3016 6.42 23.99 6.42ZM19.66 8.2C19.4903 8.2 19.3275 8.26743 19.2075 8.38745C19.0874 8.50748 19.02 8.67026 19.02 8.84V11.05H28.95V8.83C28.95 8.66026 28.8826 8.49748 28.7625 8.37745C28.6425 8.25743 28.4797 8.19 28.31 8.19H26.56C26.36 9.02 25.78 9.68 25.03 10H25.04L24.96 10.03L24.82 10.08C24.72 10.12 24.61 10.14 24.5 10.17L24.4 10.18C24.2709 10.1994 24.1406 10.2094 24.01 10.21H24C23.8728 10.209 23.7458 10.1989 23.62 10.18L23.52 10.17C23.3342 10.1336 23.1531 10.0766 22.98 10H22.99C22.6107 9.83976 22.2745 9.59237 22.0086 9.27789C21.7428 8.96341 21.5548 8.59071 21.46 8.19H19.66V8.2ZM22.26 13.32H22.24L22.18 13.34C22.14 13.34 22.1 13.34 22.07 13.37L22 13.41L21.93 13.47C21.8969 13.5053 21.8699 13.5459 21.85 13.59L21.84 13.62L21.83 13.65L20.53 17.13L19.7 15.03C19.6789 14.9724 19.6465 14.9197 19.6048 14.8748C19.563 14.8299 19.5127 14.7939 19.4568 14.7687C19.4009 14.7436 19.3406 14.7298 19.2793 14.7283C19.218 14.7268 19.1571 14.7376 19.1 14.76L19.08 14.77C19.0201 14.7914 18.9655 14.8255 18.92 14.87L17.64 16.15H14.24C14.1167 16.15 13.9984 16.199 13.9112 16.2862C13.824 16.3734 13.775 16.4917 13.775 16.615C13.775 16.7383 13.824 16.8566 13.9112 16.9438C13.9984 17.031 14.1167 17.08 14.24 17.08H17.74L17.8 17.06C17.93 17.06 18.06 17.03 18.16 16.93L19.09 16.01L20.11 18.61C20.21 18.85 20.47 18.97 20.71 18.87C20.7764 18.8435 20.8355 18.8015 20.8825 18.7476C20.9294 18.6937 20.9629 18.6294 20.98 18.56L20.99 18.54L21.98 15.88L22.41 21.04C22.43 21.3 22.66 21.49 22.91 21.47C23.0026 21.4643 23.0914 21.4306 23.1646 21.3735C23.2377 21.3164 23.2919 21.2385 23.32 21.15L25.06 16.11L26.42 18.29L26.47 18.34L26.53 18.41L26.54 18.42L26.59 18.44C26.79 18.56 27.04 18.52 27.19 18.34L28.26 16.97H31.56C31.682 16.97 31.799 16.9215 31.8853 16.8353C31.9715 16.749 32.02 16.632 32.02 16.51C32.02 16.388 31.9715 16.271 31.8853 16.1847C31.799 16.0985 31.682 16.05 31.56 16.05H28.08L28 16.06L27.9 16.08C27.8059 16.1029 27.7218 16.1555 27.66 16.23L26.86 17.25L25.36 14.84C25.3049 14.7566 25.2242 14.6934 25.13 14.66L25.08 14.63C25.0223 14.6096 24.961 14.601 24.8999 14.6046C24.8388 14.6082 24.779 14.624 24.724 14.651C24.6691 14.678 24.6201 14.7157 24.5799 14.7619C24.5397 14.8081 24.5091 14.8618 24.49 14.92L23.16 18.8L22.73 13.77V13.74C22.724 13.6807 22.7071 13.6231 22.68 13.57L22.67 13.55C22.6438 13.5046 22.6099 13.464 22.57 13.43L22.53 13.41C22.5034 13.3805 22.4686 13.3596 22.43 13.35L22.36 13.33L22.26 13.32ZM35.1 14.48C35.25 14.48 35.41 14.52 35.56 14.58L36.46 15C37.06 15.29 37.32 16 37.04 16.6L36.44 17.9L33.35 16.48L33.95 15.18C34.0497 14.9617 34.2126 14.7783 34.4176 14.6535C34.6226 14.5288 34.8603 14.4683 35.1 14.48ZM33.1 17.03L36.18 18.46L35.87 19.12L32.79 17.69L33.09 17.03H33.1ZM32.54 18.23L35.61 19.67L33.53 24.15L29.93 31.88L29.63 32.52C29.5736 32.6362 29.4745 32.7261 29.3533 32.7708C29.2321 32.8156 29.0984 32.8117 28.98 32.76L28.33 32.46L27.44 32.05L26.8 31.75C26.6813 31.6936 26.5895 31.5927 26.5446 31.4692C26.4997 31.3457 26.5052 31.2095 26.56 31.09L26.86 30.45L30.45 22.72L32.54 18.23ZM13.94 24V25.37H27.6L28.27 24H13.94ZM13.94 28V29.37H25.67L26.34 28H13.94ZM13.94 32V33.37H23.72L24.4 32H13.94ZM26.49 32.39L28.61 33.39L25.96 36.38L26.49 32.38V32.39ZM13.94 35.99V37.37H21.78L22.45 36H13.94V35.99Z" fill="#333333"/>
</svg>

<?xml version="1.0" encoding="UTF-8" standalone="no"?>
<!-- Created with Inkscape (http://www.inkscape.org/) -->
<svg id="svg8" xmlns:rdf="http://www.w3.org/1999/02/22-rdf-syntax-ns#" xmlns="http://www.w3.org/2000/svg" xmlns:osb="http://www.openswatchbook.org/uri/2009/osb" height="48" width="48" version="1.1" xmlns:cc="http://creativecommons.org/ns#" viewBox="0 0 12.7 12.7" xmlns:dc="http://purl.org/dc/elements/1.1/">
 <title id="title4753">UIO-icon</title>
 <metadata id="metadata5">
  <rdf:RDF>
   <cc:Work rdf:about="">
    <dc:format>image/svg+xml</dc:format>
    <dc:type rdf:resource="http://purl.org/dc/dcmitype/StillImage"/>
    <dc:title>UIO-icon</dc:title>
    <dc:creator>
     <cc:Agent>
      <dc:title>Joaquín Urbano</dc:title>
     </cc:Agent>
    </dc:creator>
    <dc:rights>
     <cc:Agent>
      <dc:title>GPL</dc:title>
     </cc:Agent>
    </dc:rights>
   </cc:Work>
  </rdf:RDF>
 </metadata>
 <g id="layer1" fill="#333" transform="translate(0,-284.3)">
  <path id="rect4810" d="m0 0v48h48v-48h-48zm24.029 4.9727c1.4 0.0015 2.553 1.1015 2.619 2.5h2.038c0.589 0 1.062 0.4752 1.062 1.0644v0.2383h6.391c1.029 0 1.857 0.8278 1.857 1.8576v5.303 25.232c0 1.03-0.828 1.859-1.857 1.859h-24.278c-1.029 0-1.859-0.829-1.859-1.859v-30.535c0-1.0298 0.83-1.8576 1.859-1.8576h6.389v-0.2383c0-0.5892 0.473-1.0644 1.062-1.0644h2.098c0.067-1.3985 1.219-2.4985 2.619-2.5zm13.967 10.963c0.019-0.508-0.264-1-0.756-1.229l-1.957-0.92c-0.164-0.076-0.334-0.115-0.504-0.121-0.508-0.019-1.002 0.262-1.23 0.754l-7.68 16.516c-0.154 0.33-0.157 0.69-0.039 1.005-0.004 0.019-0.016 0.034-0.018 0.053l-0.568 4.901c-0.002 0.026 0.004 0.052 0.006 0.078 0.003 0.059 0.013 0.111 0.035 0.164 0.004 0.011 0.012 0.02 0.016 0.031 0.022 0.04 0.046 0.076 0.078 0.109 0.008 0.008 0.01 0.018 0.017 0.026 0.013 0.011 0.031 0.016 0.045 0.027 0.022 0.015 0.042 0.034 0.067 0.045 0.042 0.023 0.085 0.034 0.131 0.041 0.006 0.001 0.014 0.008 0.021 0.008 0.005 0 0.008-0.002 0.012 0 0.056 0.007 0.112-0.002 0.168-0.016 0.002 0 0.004-0.001 0.006-0.002 0.001 0 0.003-0.001 0.004-0.002 0.054-0.015 0.103-0.042 0.15-0.08 0.002-0.001 0.006 0 0.008-0.002 0.001-0.001 0.002-0.003 0.004-0.004 0.017-0.015 0.038-0.022 0.052-0.037l3.36-3.627c0.006-0.007 0.007-0.015 0.014-0.019 0.321-0.111 0.598-0.348 0.753-0.682l7.682-16.514c0.076-0.163 0.117-0.334 0.123-0.503zm-14.01-9.5122c-0.648-0.0004-1.174 0.5254-1.174 1.1739 0 0.6484 0.526 1.1742 1.174 1.1738 0.648-0.0007 1.173-0.5261 1.172-1.1738 0.001-0.6477-0.524-1.1732-1.172-1.1739zm-4.33 1.7657c-0.355 0-0.64 0.2857-0.64 0.6406v1.1699 1.051h9.935v-1.051-1.1699c0-0.3549-0.286-0.6406-0.64-0.6406h-1.747c-0.195 0.8351-0.782 1.4911-1.535 1.8105h0.012c-0.027 0.01-0.053 0.02-0.08 0.029-0.045 0.018-0.09 0.036-0.137 0.051-0.107 0.036-0.217 0.064-0.328 0.086-0.03 0.006-0.061 0.009-0.092 0.014-0.129 0.021-0.261 0.033-0.392 0.035h-0.012c-0.128-0.003-0.255-0.014-0.381-0.035-0.031-0.005-0.063-0.008-0.094-0.014-0.116-0.022-0.231-0.052-0.343-0.09-0.036-0.012-0.071-0.025-0.106-0.039-0.033-0.012-0.065-0.024-0.097-0.037h0.015c-0.753-0.3194-1.339-0.9754-1.535-1.8105h-1.803zm2.598 5.1175l-0.002 0.002c-0.004 0-0.006 0.003-0.01 0.003-0.003 0.001-0.006-0.002-0.01-0.001-0.018 0.001-0.032 0.011-0.05 0.015-0.04 0.008-0.078 0.014-0.114 0.033-0.024 0.012-0.043 0.031-0.064 0.045-0.026 0.019-0.053 0.038-0.074 0.061-0.032 0.034-0.055 0.076-0.075 0.119-0.004 0.008-0.012 0.016-0.015 0.027l-0.002 0.006c-0.003 0.008-0.008 0.016-0.01 0.024l-1.301 3.484-0.824-2.111c-0.093-0.24-0.36-0.357-0.599-0.264-0.008 0.003-0.013 0.008-0.02 0.012-0.059 0.022-0.113 0.056-0.16 0.103l-1.281 1.272h-3.399c-0.257 0-0.463 0.208-0.463 0.465s0.206 0.464 0.463 0.464h3.49c0.025 0 0.048-0.011 0.071-0.015 0.129 0.007 0.26-0.03 0.359-0.129l0.93-0.922 1.013 2.602c0.094 0.239 0.362 0.357 0.602 0.263 0.145-0.056 0.235-0.179 0.271-0.318 0.003-0.008 0.008-0.012 0.01-0.02l0.99-2.652 0.432 5.158c0.022 0.256 0.246 0.445 0.502 0.424 0.002 0 0.003-0.002 0.004-0.002 0.18-0.011 0.343-0.13 0.406-0.312l1.738-5.038 1.362 2.174c0.013 0.023 0.034 0.034 0.051 0.055 0.019 0.023 0.034 0.049 0.058 0.068 0.004 0.003 0.008 0.004 0.012 0.008 0.014 0.011 0.031 0.016 0.047 0.024 0.197 0.113 0.448 0.078 0.594-0.106l1.074-1.363h3.308c0.257 0 0.465-0.208 0.465-0.465s-0.208-0.463-0.465-0.463h-3.49c-0.026 0-0.049 0.012-0.074 0.016-0.034 0.001-0.063 0.01-0.096 0.017-0.004 0.002-0.011 0.003-0.015 0.004-0.087 0.027-0.168 0.072-0.229 0.149l-0.799 1.013-1.508-2.406c-0.054-0.086-0.135-0.143-0.222-0.178-0.018-0.007-0.032-0.021-0.051-0.029-0.243-0.084-0.506 0.044-0.59 0.287l-1.338 3.877-0.422-5.025c0-0.008-0.001-0.02-0.002-0.028l-0.002-0.002c-0.005-0.059-0.02-0.119-0.046-0.171-0.005-0.008-0.013-0.014-0.018-0.022-0.025-0.042-0.054-0.082-0.092-0.115-0.012-0.012-0.029-0.016-0.043-0.028-0.031-0.022-0.059-0.045-0.095-0.058-0.005-0.002-0.009 0-0.014-0.002-0.02-0.008-0.042-0.008-0.063-0.012-0.035-0.007-0.07-0.017-0.105-0.017zm12.842 1.16c0.156 0.007 0.315 0.042 0.466 0.113l0.891 0.414c0.606 0.282 0.868 0.997 0.586 1.604l-0.605 1.302-3.08-1.431 0.605-1.303c0.211-0.455 0.666-0.716 1.137-0.699zm-1.998 2.549l3.08 1.431-0.309 0.664-3.078-1.433 0.307-0.662zm-0.561 1.209l3.078 1.431-2.086 4.489-3.593 7.726-0.299 0.643c-0.117 0.249-0.411 0.356-0.66 0.24l-0.645-0.299-0.891-0.414-0.644-0.299c-0.25-0.116-0.357-0.41-0.24-0.66l0.298-0.643 3.594-7.728 2.088-4.486zm-18.598 5.775v1.375h13.676l0.67-1.375h-14.346zm0 4v1.375h11.731l0.67-1.375h-12.401zm0 4v1.375h9.786l0.668-1.375h-10.454zm12.551 0.387l2.123 1.004-2.654 2.986 0.531-3.99zm-12.551 3.613v1.375h7.84l0.668-1.375h-8.508z" fill-rule="evenodd" transform="matrix(.26458 0 0 .26458 0 284.3)"/>
 </g>
</svg>
